Newaita-dark/apps/32/com.github.jeremyvaartjes.comgen.svg

<svg height="32" viewBox="0 0 32 32" width="32" xmlns="http://www.w3.org/2000/svg" xmlns:xlink="http://www.w3.org/1999/xlink"><linearGradient id="a" gradientUnits="userSpaceOnUse" x1="15.87652" x2="15.87652" y1="28.033936" y2="29.35698000003"><stop offset="0" stop-opacity=".27451"/><stop offset="1" stop-opacity="0"/></linearGradient><linearGradient id="b"><stop offset="0" stop-opacity=".313726"/><stop offset=".222222" stop-opacity=".27451"/><stop offset="1" stop-opacity="0"/></linearGradient><radialGradient id="c" cx="450.908936" cy="189.579361" gradientTransform="matrix(.00000017 -.0781325 -.140638 -.0000001 52.130648 63.595333)" gradientUnits="userSpaceOnUse" r="21.166656" xlink:href="#b"/><radialGradient id="d" cx="450.908936" cy="189.579361" gradientTransform="matrix(-.00000017 .0781325 .140638 .0000001 -20.377613 -7.527479)" gradientUnits="userSpaceOnUse" r="21.166656" xlink:href="#b"/><radialGradient id="e" cx="450.908936" cy="189.579361" gradientTransform="matrix(-.00000017 -.0781325 .140638 -.0000001 -20.377613 63.595333)" gradientUnits="userSpaceOnUse" r="21.166656" xlink:href="#b"/><radialGradient id="f" cx="450.908936" cy="189.579361" gradientTransform="matrix(.00000017 .0781325 -.140638 .0000001 52.130646 -7.527479)" gradientUnits="userSpaceOnUse" r="21.166656" xlink:href="#b"/><linearGradient id="g" gradientUnits="userSpaceOnUse" x1="10.58434899997" x2="10.58434899997" y1="28.033934" y2="2.89610500006"><stop offset="0" stop-color="#e0e0e0"/><stop offset="1" stop-color="#eee"/></linearGradient><linearGradient id="h" gradientUnits="userSpaceOnUse" x1="254" x2="254" y1="233.5" y2="-168.666672"><stop offset="0" stop-color="#616161"/><stop offset="1" stop-color="#757575"/></linearGradient><path d="m5.953125 27.9375h19.847656v1.46875h-19.847656zm0 0" fill="url(#a)"/><path d="m25.800781 28.035156h2.644531v-1.324218h-2.644531zm0 0" fill="url(#c)"/><path d="m5.953125 28.035156h-2.644531v1.320313h2.644531zm0 0" fill="url(#d)"/><path d="m5.953125 28.035156h-2.644531v-1.324218h2.644531zm0 0" fill="url(#e)"/><path d="m25.800781 28.035156h2.644531v1.320313h-2.644531zm0 0" fill="url(#f)"/><path d="m4.628906 2.894531h22.492188c.730468 0 1.324218.59375 1.324218 1.324219v22.492188c0 .730468-.59375 1.324218-1.324218 1.324218h-22.492188c-.730468 0-1.320312-.59375-1.320312-1.324218v-22.492188c0-.730469.589844-1.324219 1.320312-1.324219zm0 0" fill="url(#g)"/><path d="m4.628906 2.988281c-.730468 0-1.320312.589844-1.320312 1.324219v.164062c0-.730468.589844-1.324218 1.320312-1.324218h22.492188c.734375 0 1.324218.59375 1.324218 1.324218v-.164062c0-.734375-.589843-1.324219-1.324218-1.324219zm0 0" fill="#f8f8f8" fill-opacity=".392157"/><path d="m4.628906 27.953125c-.730468 0-1.320312-.59375-1.320312-1.324219v-.167968c0 .734374.589844 1.324218 1.320312 1.324218h22.492188c.734375 0 1.324218-.589844 1.324218-1.324218v.167968c0 .730469-.589843 1.324219-1.324218 1.324219zm0 0" fill-opacity=".196078"/><g fill="none" stroke-linecap="round" transform="matrix(.062506 0 0 .062506 0 13.438783)"><path d="m74.055428-168.691922h359.840637c11.686384 0 21.185477 9.499093 21.185477 21.185477v359.840637c0 11.686384-9.499093 21.185477-21.185477 21.185477h-359.840637c-11.686384 0-21.122983-9.499093-21.122983-21.185477v-359.840637c0-11.686384 9.436599-21.185477 21.122983-21.185477zm0 0" stroke="#212121" stroke-width="3"/><path d="m158.734842 127.654778 74.117922-190.48181" stroke="url(#h)" stroke-linejoin="round" stroke-width="31"/><path d="m275.161223 127.654778 74.117923-190.48181" stroke="url(#h)" stroke-linejoin="round" stroke-width="31"/></g><path d="m14.515625 8.53125c-.386719.015625-.730469.265625-.863281.628906l-4.632813 11.90625c-.078125.195313-.09375.40625-.039062.609375.011719-.042969.023437-.082031.039062-.125l4.632813-11.90625c.132812-.363281.476562-.613281.863281-.628906.457031-.019531.867187.28125.980469.726563.078125-.296876.007812-.613282-.1875-.851563-.191406-.242187-.484375-.375-.792969-.359375zm7.277344 0c-.390625.015625-.730469.265625-.867188.628906l-4.628906 11.90625c-.078125.191406-.089844.40625-.039063.605469.011719-.039063.023438-.082031.039063-.121094l4.628906-11.90625c.136719-.363281.476563-.613281.867188-.628906.457031-.019531.863281.28125.980469.726563.074218-.296876.007812-.613282-.1875-.851563-.191407-.242187-.488282-.375-.792969-.359375zm0 0" fill="#fff" fill-opacity=".392157"/><path d="m15.484375 9.792969c-.007813.03125-.015625.058593-.027344.085937l-4.632812 11.90625c-.144531.390625-.523438.644532-.9375.632813-.417969-.015625-.777344-.292969-.898438-.691407-.148437.5.125 1.03125.621094 1.195313.496094.167969 1.035156-.089844 1.214844-.578125l4.632812-11.90625c.082031-.207031.09375-.433594.027344-.644531zm0 0" fill-opacity=".235294"/><path d="m22.761719 9.792969c-.007813.03125-.015625.058593-.027344.085937l-4.632813 11.90625c-.144531.390625-.523437.640625-.9375.628906-.417968-.015624-.777343-.292968-.894531-.691406-.148437.5.125 1.027344.617188 1.195313.492187.164062 1.03125-.085938 1.214843-.574219l4.632813-11.90625c.082031-.207031.089844-.433594.027344-.644531zm0 0" fill-opacity=".235294"/><path d="m232.227823-78.513034c-6.186909.249976-11.686384 4.249594-13.811181 10.061539l-74.117922 190.48181c-2.124797 5.187005-1.24988 11.123938 2.187291 15.49852 3.499666 4.374582 9.061635 6.561874 14.623604 5.686957 5.499475-.874916 10.124033-4.687052 12.061348-9.936551l74.117922-190.48181c1.999809-4.874534 1.312375-10.436503-1.687339-14.748591-3.062207-4.312089-8.124224-6.81185-13.373723-6.561874zm0 0" fill="none" stroke="#212121" stroke-linecap="round" stroke-linejoin="round" stroke-width="3" transform="matrix(.062506 0 0 .062506 0 13.438783)"/><path d="m348.654205-78.513034c-6.249403.249976-11.686384 4.249594-13.873675 10.061539l-74.055428 190.48181c-2.124797 5.187005-1.249881 11.123938 2.249785 15.49852 3.437172 4.374582 8.999141 6.49938 14.56111 5.624463 5.499474-.874916 10.124033-4.624558 12.061348-9.874057l74.117922-190.48181c1.937315-4.874534 1.312375-10.436503-1.749833-14.748591-2.999714-4.312089-8.06173-6.81185-13.311229-6.561874zm0 0" fill="none" stroke="#212121" stroke-linecap="round" stroke-linejoin="round" stroke-width="3" transform="matrix(.062506 0 0 .062506 0 13.438783)"/></svg>

<?xml version="1.0" encoding="UTF-8"?>
<svg xmlns="http://www.w3.org/2000/svg" xmlns:xlink="http://www.w3.org/1999/xlink" width="32px" height="32px" viewBox="0 0 32 32" version="1.1">
<defs>
<linearGradient id="linear0" gradientUnits="userSpaceOnUse" x1="254" y1="233.5" x2="254" y2="254.666672" gradientTransform="matrix(0.062506,0,0,0.062506,-0.00000381506,13.438785)">
<stop offset="0" style="stop-color:rgb(0%,0%,0%);stop-opacity:0.27451;"/>
<stop offset="1" style="stop-color:rgb(0%,0%,0%);stop-opacity:0;"/>
</linearGradient>
<radialGradient id="radial0" gradientUnits="userSpaceOnUse" cx="450.908936" cy="189.579361" fx="450.908936" fy="189.579361" r="21.166656" gradientTransform="matrix(0.00000017417,-0.0781325,-0.140638,-0.000000101539,52.130648,63.595333)">
<stop offset="0" style="stop-color:rgb(0%,0%,0%);stop-opacity:0.313726;"/>
<stop offset="0.222222" style="stop-color:rgb(0%,0%,0%);stop-opacity:0.27451;"/>
<stop offset="1" style="stop-color:rgb(0%,0%,0%);stop-opacity:0;"/>
</radialGradient>
<radialGradient id="radial1" gradientUnits="userSpaceOnUse" cx="450.908936" cy="189.579361" fx="450.908936" fy="189.579361" r="21.166656" gradientTransform="matrix(-0.00000017417,0.0781325,0.140638,0.000000101539,-20.377613,-7.527479)">
<stop offset="0" style="stop-color:rgb(0%,0%,0%);stop-opacity:0.313726;"/>
<stop offset="0.222222" style="stop-color:rgb(0%,0%,0%);stop-opacity:0.27451;"/>
<stop offset="1" style="stop-color:rgb(0%,0%,0%);stop-opacity:0;"/>
</radialGradient>
<radialGradient id="radial2" gradientUnits="userSpaceOnUse" cx="450.908936" cy="189.579361" fx="450.908936" fy="189.579361" r="21.166656" gradientTransform="matrix(-0.00000017417,-0.0781325,0.140638,-0.000000101539,-20.377613,63.595333)">
<stop offset="0" style="stop-color:rgb(0%,0%,0%);stop-opacity:0.313726;"/>
<stop offset="0.222222" style="stop-color:rgb(0%,0%,0%);stop-opacity:0.27451;"/>
<stop offset="1" style="stop-color:rgb(0%,0%,0%);stop-opacity:0;"/>
</radialGradient>
<radialGradient id="radial3" gradientUnits="userSpaceOnUse" cx="450.908936" cy="189.579361" fx="450.908936" fy="189.579361" r="21.166656" gradientTransform="matrix(0.00000017417,0.0781325,-0.140638,0.000000101539,52.130646,-7.527479)">
<stop offset="0" style="stop-color:rgb(0%,0%,0%);stop-opacity:0.313726;"/>
<stop offset="0.222222" style="stop-color:rgb(0%,0%,0%);stop-opacity:0.27451;"/>
<stop offset="1" style="stop-color:rgb(0%,0%,0%);stop-opacity:0;"/>
</radialGradient>
<linearGradient id="linear1" gradientUnits="userSpaceOnUse" x1="169.333328" y1="233.5" x2="169.333328" y2="-168.666656" gradientTransform="matrix(0.062506,0,0,0.062506,0,13.438783)">
<stop offset="0" style="stop-color:rgb(87.843138%,87.843138%,87.843138%);stop-opacity:1;"/>
<stop offset="1" style="stop-color:rgb(93.333334%,93.333334%,93.333334%);stop-opacity:1;"/>
</linearGradient>
<linearGradient id="linear2" gradientUnits="userSpaceOnUse" x1="254" y1="233.5" x2="254" y2="-168.666672" >
<stop offset="0" style="stop-color:rgb(38.039216%,38.039216%,38.039216%);stop-opacity:1;"/>
<stop offset="1" style="stop-color:rgb(45.882353%,45.882353%,45.882353%);stop-opacity:1;"/>
</linearGradient>
<linearGradient id="linear3" gradientUnits="userSpaceOnUse" x1="254" y1="233.5" x2="254" y2="-168.666672" >
<stop offset="0" style="stop-color:rgb(38.039216%,38.039216%,38.039216%);stop-opacity:1;"/>
<stop offset="1" style="stop-color:rgb(45.882353%,45.882353%,45.882353%);stop-opacity:1;"/>
</linearGradient>
</defs>
<g id="surface1">
<path style=" stroke:none;fill-rule:nonzero;fill:url(#linear0);" d="M 5.953125 27.9375 L 25.800781 27.9375 L 25.800781 29.40625 L 5.953125 29.40625 Z M 5.953125 27.9375 "/>
<path style=" stroke:none;fill-rule:nonzero;fill:url(#radial0);" d="M 25.800781 28.035156 L 28.445312 28.035156 L 28.445312 26.710938 L 25.800781 26.710938 Z M 25.800781 28.035156 "/>
<path style=" stroke:none;fill-rule:nonzero;fill:url(#radial1);" d="M 5.953125 28.035156 L 3.308594 28.035156 L 3.308594 29.355469 L 5.953125 29.355469 Z M 5.953125 28.035156 "/>
<path style=" stroke:none;fill-rule:nonzero;fill:url(#radial2);" d="M 5.953125 28.035156 L 3.308594 28.035156 L 3.308594 26.710938 L 5.953125 26.710938 Z M 5.953125 28.035156 "/>
<path style=" stroke:none;fill-rule:nonzero;fill:url(#radial3);" d="M 25.800781 28.035156 L 28.445312 28.035156 L 28.445312 29.355469 L 25.800781 29.355469 Z M 25.800781 28.035156 "/>
<path style=" stroke:none;fill-rule:nonzero;fill:url(#linear1);" d="M 4.628906 2.894531 L 27.121094 2.894531 C 27.851562 2.894531 28.445312 3.488281 28.445312 4.21875 L 28.445312 26.710938 C 28.445312 27.441406 27.851562 28.035156 27.121094 28.035156 L 4.628906 28.035156 C 3.898438 28.035156 3.308594 27.441406 3.308594 26.710938 L 3.308594 4.21875 C 3.308594 3.488281 3.898438 2.894531 4.628906 2.894531 Z M 4.628906 2.894531 "/>
<path style=" stroke:none;fill-rule:nonzero;fill:rgb(97.254902%,97.254902%,97.254902%);fill-opacity:0.392157;" d="M 4.628906 2.988281 C 3.898438 2.988281 3.308594 3.578125 3.308594 4.3125 L 3.308594 4.476562 C 3.308594 3.746094 3.898438 3.152344 4.628906 3.152344 L 27.121094 3.152344 C 27.855469 3.152344 28.445312 3.746094 28.445312 4.476562 L 28.445312 4.3125 C 28.445312 3.578125 27.855469 2.988281 27.121094 2.988281 Z M 4.628906 2.988281 "/>
<path style=" stroke:none;fill-rule:nonzero;fill:rgb(0%,0%,0%);fill-opacity:0.196078;" d="M 4.628906 27.953125 C 3.898438 27.953125 3.308594 27.359375 3.308594 26.628906 L 3.308594 26.460938 C 3.308594 27.195312 3.898438 27.785156 4.628906 27.785156 L 27.121094 27.785156 C 27.855469 27.785156 28.445312 27.195312 28.445312 26.460938 L 28.445312 26.628906 C 28.445312 27.359375 27.855469 27.953125 27.121094 27.953125 Z M 4.628906 27.953125 "/>
<path style="fill:none;stroke-width:3;stroke-linecap:round;stroke-linejoin:miter;stroke:rgb(12.941177%,12.941177%,12.941177%);stroke-opacity:1;stroke-miterlimit:4;" d="M 74.055428 -168.691922 L 433.896065 -168.691922 C 445.582449 -168.691922 455.081542 -159.192829 455.081542 -147.506445 L 455.081542 212.334192 C 455.081542 224.020576 445.582449 233.519669 433.896065 233.519669 L 74.055428 233.519669 C 62.369044 233.519669 52.932445 224.020576 52.932445 212.334192 L 52.932445 -147.506445 C 52.932445 -159.192829 62.369044 -168.691922 74.055428 -168.691922 Z M 74.055428 -168.691922 " transform="matrix(0.062506,0,0,0.062506,0,13.438783)"/>
<path style="fill:none;stroke-width:31;stroke-linecap:round;stroke-linejoin:round;stroke:url(#linear2);stroke-miterlimit:4;" d="M 158.734842 127.654778 L 232.852764 -62.827032 " transform="matrix(0.062506,0,0,0.062506,0,13.438783)"/>
<path style="fill:none;stroke-width:31;stroke-linecap:round;stroke-linejoin:round;stroke:url(#linear3);stroke-miterlimit:4;" d="M 275.161223 127.654778 L 349.279146 -62.827032 " transform="matrix(0.062506,0,0,0.062506,0,13.438783)"/>
<path style=" stroke:none;fill-rule:nonzero;fill:rgb(100%,100%,100%);fill-opacity:0.392157;" d="M 14.515625 8.53125 C 14.128906 8.546875 13.785156 8.796875 13.652344 9.160156 L 9.019531 21.066406 C 8.941406 21.261719 8.925781 21.472656 8.980469 21.675781 C 8.992188 21.632812 9.003906 21.59375 9.019531 21.550781 L 13.652344 9.644531 C 13.785156 9.28125 14.128906 9.03125 14.515625 9.015625 C 14.972656 8.996094 15.382812 9.296875 15.496094 9.742188 C 15.574219 9.445312 15.503906 9.128906 15.308594 8.890625 C 15.117188 8.648438 14.824219 8.515625 14.515625 8.53125 Z M 21.792969 8.53125 C 21.402344 8.546875 21.0625 8.796875 20.925781 9.160156 L 16.296875 21.066406 C 16.21875 21.257812 16.207031 21.472656 16.257812 21.671875 C 16.269531 21.632812 16.28125 21.589844 16.296875 21.550781 L 20.925781 9.644531 C 21.0625 9.28125 21.402344 9.03125 21.792969 9.015625 C 22.25 8.996094 22.65625 9.296875 22.773438 9.742188 C 22.847656 9.445312 22.78125 9.128906 22.585938 8.890625 C 22.394531 8.648438 22.097656 8.515625 21.792969 8.53125 Z M 21.792969 8.53125 "/>
<path style=" stroke:none;fill-rule:nonzero;fill:rgb(0%,0%,0%);fill-opacity:0.235294;" d="M 15.484375 9.792969 C 15.476562 9.824219 15.46875 9.851562 15.457031 9.878906 L 10.824219 21.785156 C 10.679688 22.175781 10.300781 22.429688 9.886719 22.417969 C 9.46875 22.402344 9.109375 22.125 8.988281 21.726562 C 8.839844 22.226562 9.113281 22.757812 9.609375 22.921875 C 10.105469 23.089844 10.644531 22.832031 10.824219 22.34375 L 15.457031 10.4375 C 15.539062 10.230469 15.550781 10.003906 15.484375 9.792969 Z M 15.484375 9.792969 "/>
<path style=" stroke:none;fill-rule:nonzero;fill:rgb(0%,0%,0%);fill-opacity:0.235294;" d="M 22.761719 9.792969 C 22.753906 9.824219 22.746094 9.851562 22.734375 9.878906 L 18.101562 21.785156 C 17.957031 22.175781 17.578125 22.425781 17.164062 22.414062 C 16.746094 22.398438 16.386719 22.121094 16.269531 21.722656 C 16.121094 22.222656 16.394531 22.75 16.886719 22.917969 C 17.378906 23.082031 17.917969 22.832031 18.101562 22.34375 L 22.734375 10.4375 C 22.816406 10.230469 22.824219 10.003906 22.761719 9.792969 Z M 22.761719 9.792969 "/>
<path style="fill:none;stroke-width:3;stroke-linecap:round;stroke-linejoin:round;stroke:rgb(12.941177%,12.941177%,12.941177%);stroke-opacity:1;stroke-miterlimit:4;" d="M 232.227823 -78.513034 C 226.040914 -78.263058 220.541439 -74.26344 218.416642 -68.451495 L 144.29872 122.030315 C 142.173923 127.21732 143.04884 133.154253 146.486011 137.528835 C 149.985677 141.903417 155.547646 144.090709 161.109615 143.215792 C 166.60909 142.340876 171.233648 138.52874 173.170963 133.279241 L 247.288885 -57.202569 C 249.288694 -62.077103 248.60126 -67.639072 245.601546 -71.95116 C 242.539339 -76.263249 237.477322 -78.76301 232.227823 -78.513034 Z M 232.227823 -78.513034 " transform="matrix(0.062506,0,0,0.062506,0,13.438783)"/>
<path style="fill:none;stroke-width:3;stroke-linecap:round;stroke-linejoin:round;stroke:rgb(12.941177%,12.941177%,12.941177%);stroke-opacity:1;stroke-miterlimit:4;" d="M 348.654205 -78.513034 C 342.404802 -78.263058 336.967821 -74.26344 334.78053 -68.451495 L 260.725102 122.030315 C 258.600305 127.21732 259.475221 133.154253 262.974887 137.528835 C 266.412059 141.903417 271.974028 144.028215 277.535997 143.153298 C 283.035471 142.278382 287.66003 138.52874 289.597345 133.279241 L 363.715267 -57.202569 C 365.652582 -62.077103 365.027642 -67.639072 361.965434 -71.95116 C 358.96572 -76.263249 353.903704 -78.76301 348.654205 -78.513034 Z M 348.654205 -78.513034 " transform="matrix(0.062506,0,0,0.062506,0,13.438783)"/>
</g>
</svg>
